!!!SOCIAL_FUNCTION:	love songs
!!!PDT:	1909
!!!OTL: No_139_He_Must_Be_Sorrowful.krn
!!!REG: Great_Lakes
!!!LANG: Non-Tone
!!!LING_GROUP: Algonquin
**kern
*staff1
=1-
*clefF4
*k[]
*M2/4
4c\
8.c\L
16c\Jk
=2
4.c\
8G\
=3
2c\
=4
4c\
8.c\L
16c\Jk
=5
4.G\
8F\
=6
2G\
=7
4G\
8.c\L
16c\Jk
=8
4.G\
8F\
=9
2F\
=10
4F\
8.F\L
16F\Jk
=11
4.E-\
8C/
=12
2F\
=13
4F\
8.G\L
16G\Jk
=14
4.F\
8D\
=15
4C/
4D\
=16
16C/LK
8.C/J
4C/
=17
2C/
=18
8G\L
8G\J
8.c\L
16c\Jk
=19
4.G\
Gq/
8F\
=20
2G\
=21
8G\L
8G\J
8c\L
8c\J
=22
4.G\
Gq/
8F\
=23
2F\
=24
8F\L
8F\J
8F\L
8F\J
=25
4E-\
8C/L
8C/J
=26
2F\
=27
8F\L
8F\J
8.G\L
16G\Jk
=28
4F\
8D/L
8C/J
=29
4D\
8C/L
8C/J
=30
2C/
==
*-
